src/icons/logo.svg

<?xml version="1.0" encoding="UTF-8"?>
<svg width="80px" height="26px" viewBox="0 0 80 26" version="1.1" xmlns="http://www.w3.org/2000/svg" xmlns:xlink="http://www.w3.org/1999/xlink">
    <!-- Generator: Sketch 61 (89581) - https://sketch.com -->
    <title>logoPrimary</title>
    <desc>Created with Sketch.</desc>
    <g id="Dashboard" stroke="none" stroke-width="1" fill="none" fill-rule="evenodd">
        <g id="1-Dt-1440-3-setupDashboard-1-Default" transform="translate(-64.000000, -46.000000)" fill="#1D1E1F">
            <g id="menu-/-desktop-/-logged-/-setup">
                <g id="Topo">
                    <g id="logo-/-logoPrimary" transform="translate(64.000000, 46.000000)">
                        <path d="M51.175435,20.1793093 L53.7221457,22.6984729 C49.267407,27.100509 42.0413981,27.100509 37.5866594,22.6984729 L40.1340992,20.1793093 C43.1831527,23.1924832 48.1278397,23.1924832 51.175435,20.1793093 Z M7.74657906,3.41155996 C11.8003183,3.41155996 15.3451529,6.28895324 15.3451529,10.9495503 C15.3451529,15.6664819 11.6800185,18.543153 7.62627924,18.543153 C3.54191822,18.543153 2.22044605e-14,15.6664819 2.22044605e-14,11.0080516 C2.22044605e-14,6.26078599 3.72127431,3.41155996 7.74657906,3.41155996 Z M27.6001512,3.41155996 L27.6001512,7.20980576 C27.3012243,7.15130454 26.7901324,7.09135885 26.2790404,7.09135885 C24.1770746,7.09135885 21.9854307,8.16099224 21.9854307,10.8888824 L21.9854307,18.3965388 L17.9907477,18.3965388 L17.9907477,3.56034084 L21.0529248,3.56034084 L21.5946385,5.19331931 L22.0751087,5.19331931 C22.7363931,4.53969458 24.2076963,3.41155996 26.6698326,3.41155996 L27.6001512,3.41155996 Z M34.0894344,3.56026862 L34.0894344,18.3964666 L30.245673,18.3964666 L30.245673,3.56026862 L34.0894344,3.56026862 Z M61.2115747,3.56026862 L61.2115747,18.3964666 L57.3678134,18.3964666 L57.3678134,3.56026862 L61.2115747,3.56026862 Z M74.235087,3.41155996 C78.108012,3.41155996 80,6.26078599 80,10.3544268 L80,18.3965388 L76.005317,18.3965388 L76.005317,11.2449454 C76.005317,10.7401015 76.3654874,7.00252366 73.4841245,6.85374279 C72.0718776,6.76562984 69.5506851,7.53481253 69.5506851,11.4218935 L69.5506851,18.3965388 L65.5866239,18.3965388 L65.5866239,3.56034084 L68.648801,3.56034084 L69.1598929,5.37171191 L69.6709849,5.37171191 C70.2994603,4.62997424 71.7117072,3.41155996 74.235087,3.41155996 Z M54.5518498,-5.68434189e-14 C54.5518498,2.36749377 53.2774009,4.44031473 51.3693729,5.58361633 C52.4323858,6.8388647 53.0805466,8.51012174 53.0805466,10.5027744 C53.0805466,15.2218727 49.4175995,18.099266 45.3638603,18.099266 C41.2794992,18.099266 37.7353938,15.2218727 37.7353938,10.5634423 C37.7353938,6.05379279 41.0964977,3.25656785 44.8841192,2.98861782 L44.8841192,2.9669507 L47.9462963,2.9669507 C49.6057047,2.9669507 50.947959,1.63875636 50.947959,-5.68434189e-14 L54.5518498,-5.68434189e-14 Z M7.74657906,6.85374279 C5.46525709,6.85374279 3.93343944,8.66294714 3.93343944,10.9777176 C3.93343944,13.2917658 5.46525709,15.1009702 7.74657906,15.1009702 C10.0300883,15.1009702 11.4095262,13.2917658 11.4095262,10.9777176 C11.4095262,8.66294714 10.0300883,6.85374279 7.74657906,6.85374279 Z M45.4535383,6.52830267 C43.1707582,6.52830267 41.6403987,8.33750703 41.6403987,10.6522775 C41.6403987,12.9663257 43.1707582,14.77553 45.4535383,14.77553 C47.7348603,14.77553 49.1164854,12.9663257 49.1164854,10.6522775 C49.1164854,8.33750703 47.7348603,6.52830267 45.4535383,6.52830267 Z" id="logoPrimary"></path>
                    </g>
                </g>
            </g>
        </g>
    </g>
</svg>

<svg viewBox="0 0 80 26" xmlns="http://www.w3.org/2000/svg"><path d="M51.175 20.18l2.547 2.518c-4.455 4.403-11.68 4.403-16.135 0l2.547-2.519c3.05 3.013 7.994 3.013 11.041 0zM7.747 3.411c4.053 0 7.598 2.877 7.598 7.538 0 4.716-3.665 7.593-7.719 7.593C3.542 18.543 0 15.666 0 11.008c0-4.747 3.721-7.596 7.747-7.596zm19.853 0V7.21a7.507 7.507 0 00-1.321-.119c-2.102 0-4.294 1.07-4.294 3.798v7.508h-3.994V3.56h3.062l.542 1.633h.48c.661-.653 2.133-1.781 4.595-1.781h.93zm6.49.148v14.836h-3.844V3.56h3.843zm27.122 0v14.836h-3.844V3.56h3.844zm13.023-.148C78.108 3.412 80 6.26 80 10.354v8.043h-3.995v-7.152c0-.505.36-4.242-2.52-4.391-1.413-.088-3.934.68-3.934 4.568v6.975h-3.964V3.56h3.062l.51 1.812h.512c.628-.742 2.04-1.96 4.564-1.96zM54.552 0c0 2.367-1.275 4.44-3.183 5.584 1.063 1.255 1.712 2.926 1.712 4.919 0 4.719-3.663 7.596-7.717 7.596-4.085 0-7.629-2.877-7.629-7.536 0-4.51 3.361-7.306 7.15-7.574v-.022h3.061c1.66 0 3.002-1.328 3.002-2.967h3.604zM7.747 6.854c-2.282 0-3.814 1.809-3.814 4.124 0 2.314 1.532 4.123 3.814 4.123 2.283 0 3.663-1.81 3.663-4.123 0-2.315-1.38-4.124-3.663-4.124zm37.707-.326c-2.283 0-3.814 1.81-3.814 4.124 0 2.314 1.53 4.124 3.814 4.124 2.28 0 3.662-1.81 3.662-4.124 0-2.314-1.381-4.124-3.662-4.124z" fill="#1D1E1F" fill-rule="evenodd"/></svg>
